icons/rows-24.svg

<svg xmlns="http://www.w3.org/2000/svg" width="24" height="24" viewBox="0 0 24 24">
  <defs/>
  <path d="M22,3.75 L22,9.25 C22,10.216 21.216,11 20.25,11 L3.75,11 C2.784,11 2,10.216 2,9.25 L2,3.75 C2,2.784 2.784,2 3.75,2 L20.25,2 C21.216,2 22,2.784 22,3.75 Z M22,14.75 L22,20.25 C22,21.216 21.216,22 20.25,22 L3.75,22 C2.784,22 2,21.216 2,20.25 L2,14.75 C2,13.784 2.784,13 3.75,13 L20.25,13 C21.216,13 22,13.784 22,14.75 Z M20.25,3.5 L3.75,3.5 C3.612,3.5 3.5,3.612 3.5,3.75 L3.5,9.25 C3.5,9.388 3.612,9.5 3.75,9.5 L20.25,9.5 C20.388,9.5 20.5,9.388 20.5,9.25 L20.5,3.75 C20.5,3.612 20.388,3.5 20.25,3.5 Z M20.25,14.5 L3.75,14.5 C3.612,14.5 3.5,14.612 3.5,14.75 L3.5,20.25 C3.5,20.388 3.612,20.5 3.75,20.5 L20.25,20.5 C20.388,20.5 20.5,20.388 20.5,20.25 L20.5,14.75 C20.5,14.612 20.388,14.5 20.25,14.5 Z"/>
</svg>

<svg xmlns="http://www.w3.org/2000/svg" width="24" height="24" viewBox="0 0 24 24"><path d="M22 3.75v5.5A1.75 1.75 0 0120.25 11H3.75A1.75 1.75 0 012 9.25v-5.5C2 2.784 2.784 2 3.75 2h16.5c.966 0 1.75.784 1.75 1.75zm0 11v5.5A1.75 1.75 0 0120.25 22H3.75A1.75 1.75 0 012 20.25v-5.5c0-.966.784-1.75 1.75-1.75h16.5c.966 0 1.75.784 1.75 1.75zM20.25 3.5H3.75a.25.25 0 00-.25.25v5.5c0 .138.112.25.25.25h16.5a.25.25 0 00.25-.25v-5.5a.25.25 0 00-.25-.25zm0 11H3.75a.25.25 0 00-.25.25v5.5c0 .138.112.25.25.25h16.5a.25.25 0 00.25-.25v-5.5a.25.25 0 00-.25-.25z"/></svg>
